X:1
T:Sean Van Voght
M:2/4
L:1/8
K:G
 GA| B3/2 A/2 GE| G2 ED| A2 A2| A2 GA| B3/2 A/2 GE| G2 ED| G2 G2| G2 z c|\
 B3/2 A/2 Bc| d2 cB| Ac e3/2 ^d/2| e2 =d3/2 c/2| BG AF| G2 ED| A2 A2|\
 A2 dc| BG AF| G2 ED| G2 G2| G2||

